src/img/solo.svg

<svg width="30" height="41" viewBox="0 0 30 41" fill="none" xmlns="http://www.w3.org/2000/svg">
<path d="M14.8665 18.746C14.6777 18.7271 14.4511 18.7271 14.2434 18.746C9.75008 18.595 6.18188 14.9135 6.18188 10.3824C6.18188 5.75699 9.92 2 14.5644 2C19.1898 2 22.9468 5.75699 22.9468 10.3824C22.9279 14.9135 19.3597 18.595 14.8665 18.746Z" stroke="white" stroke-width="3.1" stroke-linecap="round" stroke-linejoin="round"/>
<path d="M5.4266 25.7125C0.857799 28.7709 0.857799 33.7551 5.4266 36.7946C10.6184 40.2685 19.1331 40.2685 24.3249 36.7946C28.8937 33.7362 28.8937 28.752 24.3249 25.7125C19.152 22.2575 10.6373 22.2575 5.4266 25.7125Z" stroke="white" stroke-width="3.1" stroke-linecap="round" stroke-linejoin="round"/>
</svg>

<svg width="30" height="41" fill="none" xmlns="http://www.w3.org/2000/svg"><path d="M14.867 18.746a3.43 3.43 0 0 0-.624 0c-4.493-.151-8.061-3.832-8.061-8.364A8.376 8.376 0 0 1 14.564 2c4.626 0 8.383 3.757 8.383 8.382-.02 4.532-3.587 8.213-8.08 8.364ZM5.427 25.712c-4.57 3.059-4.57 8.043 0 11.083 5.191 3.474 13.706 3.474 18.898 0 4.569-3.059 4.569-8.043 0-11.083-5.173-3.454-13.688-3.454-18.898 0Z" stroke="#fff" stroke-width="3.1" stroke-linecap="round" stroke-linejoin="round"/></svg>
